X:1
T:Partition sans titre
C:Compositeur / Arrangeur
L:1/8
M:4/4
I:linebreak $
K:D
V:1 treble nm="Violon" snm="Vln."
V:1
"D" D2 FD EDFA | dfec dBAF | (3DDD FA defd |"A7" gece"D" fd d2 |"G" B3 d"D" ABAF | %5
"A7" GFEG"D" FD D2 | dcdf"A" edcA | Bcde"D" fd d2 ::"G" B3 B BcdB |"A" AAEA CEA,E |"G" B2 FB BcdB | %11
 Bcec"A" fcec |"G" BBFB BcdB |"A" AAEA CEA,E |"G" B3 d"D" ABAF |"A7" GFEG"D" FD D2 :| %16
